X:1
T:Kuala Lumpur, 10.10.12.10
T:Kuala Lumpur, 10.10.12.10
T:Thomas Frank Allen, 1884
T:Public Domain Courtesy of the Cyber Hymnal™
C:Thomas Frank Allen, 1884
Z:Public Domain
Z:Courtesy of the Cyber Hymnal™
%%score ( 1 2 ) ( 3 4 )
L:1/8
Q:1/4=90
M:4/4
K:G
V:1 treble 
V:2 treble 
V:3 bass 
V:4 bass 
V:1
 [B,G]2 [DG][DA] [DB][CA][B,G][DF] | [DF]2 [CE]2 [B,D]4 | [DF]2 [DF][DG] [DA][DF][DG][DA] | %3
 [DB]2 [GB]2 [FA]4 | [GB]2 [GB][Fc] [Gd][Fc] [GB]2 | [GB]2 [GB][FA] [EG][^DF] E2 | %6
 [Ec]2 [EB][EA] [DG][DF][DG][EA] | [DB]2 [DA]2 [DG]4 |] %8
V:2
 x8 | x8 | x8 | x8 | x8 | x6 E2 | x8 | x8 |] %8
V:3
 [G,,G,]2 [B,,G,][D,F,] G,[D,F,][E,G,][B,,G,] | [C,G,]2 [C,G,]2 [G,,G,]4 | %2
 [D,A,]2 [D,A,][D,B,] [D,C][C,A,][B,,G,][D,F,] | G,2 [B,,D]2 [D,D]4 | %4
 [G,D]2 [G,D][A,D] [B,D][A,D] [G,D]2 | [G,D]2 [G,D][D,C] [E,B,][B,,A,] [B,,G,]2 | %6
 [A,,A,]2 [B,,^G,][C,A,] [D,B,][C,A,][B,,=G,][C,G,] | [D,G,]2 [D,C]2 [G,,B,]4 |] %8
V:4
 x4 G, x3 | x8 | x8 | G,2 x6 | x8 | x8 | x8 | x8 |] %8

